X:1
T:[ID 2-66]
T:[ID 2-66]
T:Bezeichnung standardisiert: Menuet [mit Trio] Menuet Con Trio No
T:Urheber unbekannt Erstbeleg: 1767 (Datum in der schriftlichen Quelle) Datum in der hier transkribierten schriftlichen Quelle: 1776 - 1791
C:Urheber unbekannt
C:Erstbeleg: 1767 (Datum in der schriftlichen Quelle)
C:Datum in der hier transkribierten schriftlichen Quelle: 1776 - 1791
L:1/8
M:3/4
K:G
V:1 treble 
V:1
 G4 BG | dBgdBG | D4 FD | AFcAFD | G4 BG | dBgdBG | (3DFA c2 B2 |{B} A6 :: d3 gbg | bddccB | %10
 c3 faf | accBBA | d4 (3def | g4 d2 | (3edc B2 A2 | G6 :|[M:3/4]"^Trio" !fermata!d4 (3edc | %17
 d4 (3cBA | G4 (3AGF | G4 z2 | AB c2 B2 | BA A2 z2 | Bc d2 c2 | cB A2 z2 :: e3 fed |{d} e4 z2 | %26
 d3 edc |{c} d4 z2 | c4 B2 | BA A2 z2 | FGABcB | BA A2 z2 | d3 efg | d4 c2 | BABGAF | G6 :| %36

